images_sukapura_svg/cmd/sc_charfontname.svg

<svg viewBox="0 0 16 16" xmlns="http://www.w3.org/2000/svg">/&amp;amp;gt;<path d="m11.018238 11.224016h-5.7772355l-1.3069811 3.551579h-1.9036463l5.3321039-13.78959755h1.6005782l5.2468658 13.78959755h-1.903646zm-5.199512-1.562695h4.64073l-2.2730107-6.2791916h-.0568253z" fill="#4b4b4f" transform="scale(.98503967 1.0151875)"/></svg>

<?xml version="1.0" encoding="UTF-8" standalone="no"?>
<svg
   xmlns:dc="http://purl.org/dc/elements/1.1/"
   xmlns:cc="http://creativecommons.org/ns#"
   xmlns:rdf="http://www.w3.org/1999/02/22-rdf-syntax-ns#"
   xmlns:svg="http://www.w3.org/2000/svg"
   xmlns="http://www.w3.org/2000/svg"
   xmlns:sodipodi="http://sodipodi.sourceforge.net/DTD/sodipodi-0.dtd"
   xmlns:inkscape="http://www.inkscape.org/namespaces/inkscape"
   viewBox="0 0 16 16"
   version="1.1"
   id="svg4"
   sodipodi:docname="sc_charfontname.svg"
   inkscape:version="0.92.3 (2405546, 2018-03-11)"><metadata
   id="metadata10">
  <rdf:RDF>
    <cc:Work
       rdf:about="">
      <dc:format>image/svg+xml</dc:format>
      <dc:type
         rdf:resource="http://purl.org/dc/dcmitype/StillImage" />
      <dc:title></dc:title>
    </cc:Work>
  </rdf:RDF>
</metadata>
<defs
   id="defs8" />
<sodipodi:namedview
   pagecolor="#ffffff"
   bordercolor="#666666"
   borderopacity="1"
   objecttolerance="10"
   gridtolerance="10"
   guidetolerance="10"
   inkscape:pageopacity="0"
   inkscape:pageshadow="2"
   inkscape:window-width="1366"
   inkscape:window-height="716"
   id="namedview6"
   showgrid="true"
   inkscape:zoom="11.313709"
   inkscape:cx="-9.8475887"
   inkscape:cy="0.84549703"
   inkscape:window-x="-8"
   inkscape:window-y="-8"
   inkscape:window-maximized="1"
   inkscape:current-layer="svg4">
  <inkscape:grid
     type="xygrid"
     id="grid817" />
</sodipodi:namedview>
/&amp;gt;<g
   aria-label="A"
   transform="scale(0.98503967,1.0151875)"
   style="font-style:normal;font-weight:normal;font-size:19.39635658px;line-height:1.25;font-family:sans-serif;letter-spacing:0px;word-spacing:0px;fill:#000000;fill-opacity:1;stroke:none;stroke-width:0.48490888"
   id="text821">
  <path
     d="M 11.018238,11.224016 H 5.2410025 L 3.9340214,14.775595 H 2.0303751 L 7.362479,0.98599745 H 8.9630572 L 14.209923,14.775595 H 12.306277 Z M 5.818726,9.661321 h 4.64073 L 8.1864453,3.3821294 H 8.12962 Z"
     style="font-style:normal;font-variant:normal;font-weight:normal;font-stretch:normal;font-family:Roboto;-inkscape-font-specification:Roboto;stroke-width:0.48490888;fill:#4b4b4f;fill-opacity:1"
     id="path823" />
</g>
</svg>
